X: 1
T: Baltimore Salute, The
M: 4/4
L: 1/8
R: reel
K: Gmaj
|:GA|~B2eB dBAc|~B2GB AGEG|DGGF GA B/c/d|egdB ADGA|
B2ge dBAc|~B2GB AGEG|DGGF GA B/c/d|egdB G2:|
|:zA|BG~G2 gG~G2|gGeg dG~G2|GFGA ~B3d|eaag a2ga|
bgab ge~e2|gdeg dG~G2|~G2EG Dege|dBAB G2:|
